X:29
T:Banks of the Quay, The
R:march
D:De Danann: Selected Jigs, Reels & Songs
Z:id:hn-march-29
M:2/4
L:1/8
K:G
DG BB/B/ | cA B2 | BA/G/ FG | AG FE |
DG BB/B/ | cA B2 | BA/G/ FG |1 AG GF/E/ :|2 AG GB/c/ ||
d2 d>d | ed d>B | AG FG | AG GB/c/ |
d2 d>d | ed d>B | AG FG | AG GB/c/ |
d2 d>d | ed d>B | AG FG | AG FE ||
<end>
<start>
